X:1
T:Motet template
T:Motet template
T:composer
T:© cpdl
T:© cpdl
T:© cpdl
T:© cpdl
T:© cpdl
T:© cpdl
C:composer
Z:© cpdl
%%score [ 1 2 3 4 ]
L:1/8
Q:1/4=104
M:2/2
K:F
V:1 alto1 nm="Soprano" snm="S"
V:2 alto nm="Alto" snm="A"
V:3 tenor nm="Tenor" snm="T"
V:4 bass nm="Bass" snm="B"
V:1
 z16 z16 G6 x2 |] z8 | z8 | z2 G3 G G2 | F2 D2 B4 | A2 A4 B2- | B2 A2 G2 F2- | FG A3 G G2- | %8
w: |||Sca- pu- lis|su- is ob-|um- bra- bit|_ ti- bi Do-||
 G2 ^F2 G4- | G4 z4 | z4 z2 F2 | G2 DE FEFG | A2 F2 z2 F2- | FG F2 E2 EF | GABG A3 B | %15
w: * mi- nus,|_|et|sub pen- * * * * *|* nis e-|* * * jus spe- *||
 c3 B/A/ G4- | G2 B3 A/G/ A2 | B4 A4- | A2 G2 G2 G2 | F2 E2 D2 B2- | B2 B2 A4- | A2 G3 G ^F2 | %22
w: |* ra- * * *|bis: scu-|* to cir- cum-|da- bit te, scu-|* to cir-|* cum- da- bit|
 G2 B4 B2 | A6 G2- | GG ^F2 G4 | z8 | z8 | z4 F3 F | E2 AG FE D2- | D2 ^C2 D2 d2- | d2 c2 c4 | z8 | %32
w: te, scu- to|cir- cum-|* da- bit te,|||ve- ri-|tas e- * * * *|* * jus ve-|* ri- tas||
 z4 A3 A | G2 cB AG F2- | F2 E2 F4 | F3 F E2 AG | FE D4 ^C2 | D4 A4 | z8 | F3 F A2 dc | BA G4 ^F2 | %41
w: ve- ri-|tas e- * * * *|* * jus|ve- ri- tas e- *||jus _||ve- ri- tas e- *||
 G8 | B3 B A2 dc | BA G4 ^F2 | !fermata!G8 |] %45
w: jus|ve- ri- tas e- *||jus|
V:2
 D6 x34 |] D3 D D2 B,2 | A,2 F4 D2 | B,CD_E D2 C2 | D2 G2 F2 G2 | E2 F4 F2 | G2 F2 _E2 D2 | %7
w: |Sca- pu- lis su-|is ob- um-|bra- * * * * bit|ti- bi Do- mi-|nus, ob- um-|bra- bit ti- bi|
 C2 F2 D4- | D4 z2 B,2 | C2 DE FEDC | D2 G,2 z2 D2 | E2 FE DC B,2 | F,2 CD _EDCB, | C2 D2 z2 G,A, | %14
w: Do- mi- nus,|_ et|sub pen- * * * * *|* nis et|sub pen- * * * *|nis e- * * * * *|* jus spe- *|
 B,CDE F4 | E8 | D4 z4 | F6 F2 | E6 D2- | DD ^C2 D3 =C | B,CDE F4 | z4 z2 D2- | D2 D2 B,CDE | %23
w: |ra-|bis:|scu- to|cir- cum-|* da- bit te, _|_ _ _ _ _|scu-|* to cir- * * *|
 F2 F2 F,2 G,2 | D4 z4 | B,3 B, A,2 DC | B,A, G,4 ^F,2 | G,2 D4 C2 | C4 z4 | z8 | F3 F E2 AG | %31
w: * cum- da- bit|te,|ve- ri- tas e- *||jus ve- ri-|tas||ve- ri- tas e- *|
 FE D4 ^C2 | D2 F4 E2 | E4 z4 | C3 C A,2 D2 | C8 | z4 G,3 A, | B,2 A,2 C2 FE | DC B,4 A,2 | %39
w: |jus ve- ri-|tas|ve- ri- tas e-|jus|ve- *|* ri- tas e- *||
 B,4 F4 | z4 D3 D | B,2 _E3 D C2 | G2 G2 F2 D2 | D8 | !fermata!=B,8 |] %45
w: jus _|ve- ri-|tas e- * *|jus ve- ri- tas|e-|jus|
V:3
 z4 G,6 x30 |] z2 G,3 G, G,2 | F,2 D,2 B,3 C | D2 B,2 B,2 G,2 | A,2 G,2 D4 | C4 D4- | D4 B,4 | %7
w: |Sca- pu- lis|su- is ob- *|* um- bra- bit|ti- bi ob-|um- bra-|* bit|
 A,2 C2 B,3 A,/G,/ | A,2 A,2 G,4 | z2 B,2 C2 G,A, | B,A,B,C D2 B,2 | z2 B,3 C D2 | %12
w: ti- bi Do- * *|* mi- nus,|et sub pen- *|* * * * * nis|e- * *|
 C2 A,2 B,2 F,G, | A,G,A,B, C2 C2 | D2 G,2 D,E,F,G, | A,B, C3 B,/A,/ G,A, | B,4 C4 | D2 D4 D2 | %18
w: jus et sub pen- *|* * * * * nis|e- jus spe- * * *||* ra-|bis: scu- to|
 A,2 C3 C B,2 | A,4 z4 | D6 C2 | C2 C2 B,2 A,2 | G,4 D4- | D2 C2 C2 C2 | B,2 A,2 G,2 G,2- | %25
w: cir- cum- da- bit|te,|scu- to|cir- cum- da- bit|te, scu-|* to cir- cum-|da- bit te, ve-|
 G,2 F,2 F,4 | z8 | z2 B,4 A,2 | A,G,F,E, D,E, F,2 | E,4 D,4 | z8 | z8 | z2 D4 C2 | %33
w: * ri- tas||ve- ri-|tas _ _ _ _ _ _|e- jus|||ve- ri-|
 CB,A,G, F,G, A,2 | G,4 F,2 B,2- | B,2 A,2 A,G,F,E, | D,E, F,2 E,4 | D,4 z4 | z4 _E4 | %39
w: tas _ _ _ _ _ _|e- jus ve-|* ri- tas _ _ _|_ _ _ e-|jus|ve-|
 D2 D3 C B,A, | G,A, B,2 A,4 | G,4 z2 _E2- | E2 D2 DCB,A, | G,A, B,2 A,4 | !fermata!G,8 |] %45
w: ri- tas _ _ _|_ _ _ e-|jus ve-|* ri- tas _ _ _|_ _ _ e-|jus|
V:4
 z16 z16 G,6 x2 |] z8 | z8 | G,3 G, G,2 _E,2 | D,2 B,4 G,2 | A,G,F,E, D,C,B,,A,, | %6
w: |||Sca- pu- lis su-|is ob- um-|bra- * * * * * * *|
 G,,2 D,2 _E,2 B,,2 | F,3 F, G,3 F,/_E,/ | D,4 z4 | z2 G,2 A,2 B,A, | G,F, _E,2 B,,4 | z8 | %12
w: * bit ti- bi|Do- mi- nus, _ _|_|et sub pen- *|* * * nis||
 z2 F,2 G,2 A,G, | F,E, D,2 A,,2 C,2 | G,,4 z4 | z2 A,,B,, C,D,E,F, | G,4 F,4 | B,,4 z4 | z8 | %19
w: et sub pen- *|* * * nis e-|jus|spe- * * * * *|* ra-|bis:||
 z4 z2 G,2- | G,2 G,2 D,2 F,2- | F,F, _E,2 D,4 | z2 G,4 G,2 | D,2 F,3 F, _E,2 | D,4 z2 _E,2- | %25
w: scu-|* to cir- cum-|* da- bit te,|scu- to|cir- cum- da- bit|te, ve-|
 E,2 D,2 D,C,B,,A,, | G,,A,, B,,2 A,,4 | G,,4 z4 | z8 | z4 z2 B,2- | B,2 A,2 A,G,F,E, | %31
w: * ri- tas _ _ _|_ _ _ e-|jus||ve-|* ri- tas _ _ _|
 D,E, F,2 E,4 | D,3 C,/B,,/ A,,4 | z8 | C,3 C, D,2 B,,2 | F,4 z4 | z4 z2 G,2- | G,2 F,2 F,E,D,C, | %38
w: _ _ _ e-|jus _ _ _||ve- ri- tas e-|jus|ve-|* ri- tas _ _ _|
 B,,C, D,2 C,4 | B,,4 z4 | z4 D,3 D, | _E,2 C,3 =B,, C,2 | G,,4 z2 G,,2 | G,,2 G,,2 D,4 | %44
w: _ _ _ e-||ve- ri-|tas e- * *|jus ve-|ri- tas e-|
 !fermata!G,,8 |] %45
w: jus|

